!!!OTL: Der heimkehrende Soldat Soldat zog aus dem Kriege, kuckuck.
!!!ARE: Europa, Osteuropa, Ungarn
!!!YOR: 5, S. 159
!!    ????
!!!SCT: Q0103C
!!!YEM: Copyright 1995, estate of Helmut Schaffrath.
**kern
*ICvox
*Ivox
*M3/4
*k[f#]
*G:
{4d
=1
2g
4d
=2
2g
4d
=3
2g
4a
=4
2b
4a
=5
2g}
{4b
=6
2b
4dd
=7
4.dd
8cc
4dd
=8
4dd
4dd
4a
=9
2cc}
{4b
=10
2b
4a
=11
2a
4ee
=12
2ee
4dd
=13
2dd
4cc
=14
2b}
==
!!!AGN: Ballade, Ehe, Betrug
!! Anhaengsel an der ersten und dritten Zeile.
!!!ONB: ESAC (Essen Associative Code) Database: BALLADE
!!!AMT: simple triple
!!!AIN: vox
!!!EED: Helmut Schaffrath
!!!EEV: 1.0
*-
